reactjs/chapters/03/wst.news/public/images/logo.svg

<?xml version="1.0" encoding="UTF-8"?>
<!-- Created with Inkscape (http://www.inkscape.org/) -->
<svg width="123.38" height="40" version="1.1" viewBox="0 0 32.645 10.583" xmlns="http://www.w3.org/2000/svg">
 <defs>
  <filter id="filter0_d" x=".57201" y=".918" width="123.38" height="25.342" color-interpolation-filters="sRGB" filterUnits="userSpaceOnUse">
   <feFlood flood-opacity="0" result="BackgroundImageFix"/>
   <feColorMatrix in="SourceAlpha" result="hardAlpha" values="0 0 0 0 0 0 0 0 0 0 0 0 0 0 0 0 0 0 127 0"/>
   <feOffset dy="4"/>
   <feGaussianBlur stdDeviation="2"/>
   <feColorMatrix values="0 0 0 0 0 0 0 0 0 0 0 0 0 0 0 0 0 0 0.25 0"/>
   <feBlend in2="BackgroundImageFix" result="effect1_dropShadow"/>
   <feBlend in="SourceGraphic" in2="effect1_dropShadow" result="shape"/>
  </filter>
 </defs>
 <g transform="matrix(.26458 0 0 .26458 -.15134 2.7387)" fill="none">
  <path d="m11.514 1.178h3.224l1.95 12.662 1.456-12.662h3.536l-2.73 16.822h-4.134l-1.69-10.322-1.69 10.322h-4.134l-2.73-16.822h3.536l1.456 12.662zm24.103 4.42h-3.458v-1.326c0-0.13867-0.052-0.26-0.156-0.364-0.0867-0.104-0.1993-0.156-0.338-0.156h-1.43c-0.1387 0-0.26 0.052-0.364 0.156-0.0867 0.104-0.13 0.22533-0.13 0.364v2.99c0 0.13867 0.0433 0.26 0.13 0.364 0.104 0.104 0.2253 0.156 0.364 0.156h2.34c2.1493 0.03467 3.224 1.1787 3.224 3.432v3.614c0 2.288-1.0747 3.432-3.224 3.432h-3.068c-2.1493 0-3.224-1.144-3.224-3.432v-1.742h3.458v1.872c0 0.1387 0.0433 0.26 0.13 0.364 0.104 0.104 0.2253 0.156 0.364 0.156h1.612c0.1387 0 0.2513-0.052 0.338-0.156 0.104-0.104 0.156-0.2253 0.156-0.364v-3.302c0-0.1387-0.052-0.26-0.156-0.364-0.0867-0.104-0.1993-0.156-0.338-0.156h-2.34c-2.1493 0-3.224-1.144-3.224-3.432v-3.354c0-2.288 1.0747-3.432 3.224-3.432h2.886c2.1493 0 3.224 1.144 3.224 3.432zm4.2122-1.326v-3.094h9.1v3.094h-2.73v13.728h-3.64v-13.728zm13.597 12.116c0-0.52 0.182-0.962 0.546-1.326s0.806-0.546 1.326-0.546 0.962 0.182 1.326 0.546 0.546 0.806 0.546 1.326-0.182 0.962-0.546 1.326-0.806 0.546-1.326 0.546-0.962-0.182-1.326-0.546-0.546-0.806-0.546-1.326zm18.614 1.612h-3.64v-13.962c0-0.13867-0.052-0.26-0.156-0.364-0.0867-0.104-0.1994-0.156-0.338-0.156h-1.404c-0.1387 0-0.26 0.052-0.364 0.156-0.0867 0.104-0.13 0.22533-0.13 0.364v13.962h-3.64v-13.65c0-2.288 1.0746-3.432 3.224-3.432h3.224c2.1493 0 3.224 1.144 3.224 3.432zm8.6799-3.016h4.03v3.016h-7.67v-16.822h7.67v2.964h-4.03v3.952h3.77v2.86h-3.77zm14.949-13.806h3.224l1.9503 12.662 1.456-12.662h3.536l-2.73 16.822h-4.1343l-1.69-10.322-1.69 10.322h-4.134l-2.73-16.822h3.536l1.456 12.662zm24.102 4.42h-3.458v-1.326c0-0.13867-0.052-0.26-0.156-0.364-0.086-0.104-0.199-0.156-0.338-0.156h-1.43c-0.138 0-0.26 0.052-0.364 0.156-0.086 0.104-0.13 0.22533-0.13 0.364v2.99c0 0.13867 0.044 0.26 0.13 0.364 0.104 0.104 0.226 0.156 0.364 0.156h2.34c2.15 0.03467 3.224 1.1787 3.224 3.432v3.614c0 2.288-1.074 3.432-3.224 3.432h-3.068c-2.149 0-3.224-1.144-3.224-3.432v-1.742h3.458v1.872c0 0.1387 0.044 0.26 0.13 0.364 0.104 0.104 0.226 0.156 0.364 0.156h1.612c0.139 0 0.252-0.052 0.338-0.156 0.104-0.104 0.156-0.2253 0.156-0.364v-3.302c0-0.1387-0.052-0.26-0.156-0.364-0.086-0.104-0.199-0.156-0.338-0.156h-2.34c-2.149 0-3.224-1.144-3.224-3.432v-3.354c0-2.288 1.075-3.432 3.224-3.432h2.886c2.15 0 3.224 1.144 3.224 3.432z" fill="#fff" filter="url(#filter0_d)"/>
 </g>
</svg>

<svg width="124" height="27" viewBox="0 0 124 27" fill="none" xmlns="http://www.w3.org/2000/svg">
<g filter="url(#filter0_d)">
<path d="M11.514 1.178H14.738L16.688 13.84L18.144 1.178H21.68L18.95 18H14.816L13.126 7.678L11.436 18H7.302L4.572 1.178H8.108L9.564 13.84L11.514 1.178ZM35.6168 5.598H32.1588V4.272C32.1588 4.13333 32.1068 4.012 32.0028 3.908C31.9161 3.804 31.8035 3.752 31.6648 3.752H30.2348C30.0961 3.752 29.9748 3.804 29.8708 3.908C29.7841 4.012 29.7408 4.13333 29.7408 4.272V7.262C29.7408 7.40067 29.7841 7.522 29.8708 7.626C29.9748 7.73 30.0961 7.782 30.2348 7.782H32.5748C34.7241 7.81667 35.7988 8.96067 35.7988 11.214V14.828C35.7988 17.116 34.7241 18.26 32.5748 18.26H29.5068C27.3575 18.26 26.2828 17.116 26.2828 14.828V13.086H29.7408V14.958C29.7408 15.0967 29.7841 15.218 29.8708 15.322C29.9748 15.426 30.0961 15.478 30.2348 15.478H31.8468C31.9855 15.478 32.0981 15.426 32.1848 15.322C32.2888 15.218 32.3408 15.0967 32.3408 14.958V11.656C32.3408 11.5173 32.2888 11.396 32.1848 11.292C32.0981 11.188 31.9855 11.136 31.8468 11.136H29.5068C27.3575 11.136 26.2828 9.992 26.2828 7.704V4.35C26.2828 2.062 27.3575 0.918 29.5068 0.918H32.3928C34.5421 0.918 35.6168 2.062 35.6168 4.35V5.598ZM39.829 4.272V1.178H48.929V4.272H46.199V18H42.559V4.272H39.829ZM53.4258 16.388C53.4258 15.868 53.6078 15.426 53.9718 15.062C54.3358 14.698 54.7778 14.516 55.2978 14.516C55.8178 14.516 56.2598 14.698 56.6238 15.062C56.9878 15.426 57.1698 15.868 57.1698 16.388C57.1698 16.908 56.9878 17.35 56.6238 17.714C56.2598 18.078 55.8178 18.26 55.2978 18.26C54.7778 18.26 54.3358 18.078 53.9718 17.714C53.6078 17.35 53.4258 16.908 53.4258 16.388ZM72.0394 18H68.3994V4.038C68.3994 3.89933 68.3474 3.778 68.2434 3.674C68.1567 3.57 68.044 3.518 67.9054 3.518H66.5014C66.3627 3.518 66.2414 3.57 66.1374 3.674C66.0507 3.778 66.0074 3.89933 66.0074 4.038V18H62.3674V4.35C62.3674 2.062 63.442 0.918 65.5914 0.918H68.8154C70.9647 0.918 72.0394 2.062 72.0394 4.35V18ZM80.7193 14.984H84.7493V18H77.0793V1.178H84.7493V4.142H80.7193V8.094H84.4893V10.954H80.7193V14.984ZM95.6687 1.178H98.8927L100.843 13.84L102.299 1.178H105.835L103.105 18H98.9707L97.2807 7.678L95.5907 18H91.4567L88.7267 1.178H92.2627L93.7187 13.84L95.6687 1.178ZM119.771 5.598H116.313V4.272C116.313 4.13333 116.261 4.012 116.157 3.908C116.071 3.804 115.958 3.752 115.819 3.752H114.389C114.251 3.752 114.129 3.804 114.025 3.908C113.939 4.012 113.895 4.13333 113.895 4.272V7.262C113.895 7.40067 113.939 7.522 114.025 7.626C114.129 7.73 114.251 7.782 114.389 7.782H116.729C118.879 7.81667 119.953 8.96067 119.953 11.214V14.828C119.953 17.116 118.879 18.26 116.729 18.26H113.661C111.512 18.26 110.437 17.116 110.437 14.828V13.086H113.895V14.958C113.895 15.0967 113.939 15.218 114.025 15.322C114.129 15.426 114.251 15.478 114.389 15.478H116.001C116.14 15.478 116.253 15.426 116.339 15.322C116.443 15.218 116.495 15.0967 116.495 14.958V11.656C116.495 11.5173 116.443 11.396 116.339 11.292C116.253 11.188 116.14 11.136 116.001 11.136H113.661C111.512 11.136 110.437 9.992 110.437 7.704V4.35C110.437 2.062 111.512 0.918 113.661 0.918H116.547C118.697 0.918 119.771 2.062 119.771 4.35V5.598Z" fill="white"/>
</g>
<defs>
<filter id="filter0_d" x="0.572006" y="0.917999" width="123.382" height="25.342" filterUnits="userSpaceOnUse" color-interpolation-filters="sRGB">
<feFlood flood-opacity="0" result="BackgroundImageFix"/>
<feColorMatrix in="SourceAlpha" type="matrix" values="0 0 0 0 0 0 0 0 0 0 0 0 0 0 0 0 0 0 127 0" result="hardAlpha"/>
<feOffset dy="4"/>
<feGaussianBlur stdDeviation="2"/>
<feColorMatrix type="matrix" values="0 0 0 0 0 0 0 0 0 0 0 0 0 0 0 0 0 0 0.25 0"/>
<feBlend mode="normal" in2="BackgroundImageFix" result="effect1_dropShadow"/>
<feBlend mode="normal" in="SourceGraphic" in2="effect1_dropShadow" result="shape"/>
</filter>
</defs>
</svg>
